src/assets/images/icon/logo/rockabox-187x32.svg

<svg width="188" height="32" viewBox="0 0 188 32" xmlns="http://www.w3.org/2000/svg" xmlns:xlink="http://www.w3.org/1999/xlink"><title>rockabox-187x32</title><desc>Created with Sketch.</desc><defs><path d="M.06 31.342h3.274v-8.617c0-4.42.203-7.353.607-8.807.528-1.895 1.29-3.287 2.305-4.18 1.004-.898 2.06-1.35 3.146-1.35.464 0 1.038.145 1.72.446l1.7-2.767c-1.025-.58-1.99-.865-2.888-.865-1.198 0-2.343.366-3.444 1.087-1.1.725-2.155 1.824-3.144 3.292V5.857H.06v25.485zm33.59-3.334C31.18 30.672 28.01 32 24.14 32c-3.886 0-7.066-1.328-9.53-3.992-2.462-2.66-3.69-5.773-3.69-9.34 0-3.526 1.16-6.587 3.492-9.184 2.56-2.857 5.81-4.282 9.727-4.282 3.912 0 7.134 1.422 9.704 4.265 2.328 2.592 3.5 5.657 3.5 9.2 0 3.568-1.226 6.68-3.695 9.34zm-2.546-16.574C29.15 9.414 26.82 8.41 24.127 8.41c-2.714 0-5.037 1.005-6.99 3.024-1.942 2.01-2.92 4.45-2.92 7.305 0 1.84.444 3.56 1.336 5.155.888 1.594 2.088 2.826 3.602 3.697 1.513.858 3.167 1.293 4.972 1.293 1.805 0 3.47-.435 4.983-1.293 1.51-.87 2.71-2.103 3.594-3.697.888-1.594 1.336-3.315 1.336-5.156 0-2.855-.978-5.295-2.936-7.306zm21.892-3.142c-3.087 0-5.643 1-7.684 2.996-2.043 1.997-3.057 4.425-3.057 7.276 0 1.862.46 3.605 1.4 5.248.937 1.638 2.22 2.91 3.865 3.813 1.636.902 3.463 1.36 5.498 1.36 3.725 0 6.764-1.497 9.12-4.483l2.588 1.71c-1.213 1.835-2.838 3.26-4.88 4.276C57.8 31.494 55.482 32 52.87 32c-4.002 0-7.33-1.273-9.97-3.84-2.64-2.564-3.956-5.674-3.956-9.35 0-2.468.614-4.758 1.852-6.88 1.235-2.11 2.93-3.76 5.08-4.945 2.165-1.19 4.578-1.783 7.25-1.783 1.673 0 3.29.258 4.86.775 1.554.51 2.88 1.186 3.965 2.013 1.088.828 2.01 1.88 2.776 3.156l-2.588 1.622c-2.238-2.98-5.277-4.476-9.142-4.476zm34.425 23.05h-4.588L70.078 19.868v11.474h-3.26V0h3.26v16.142L81.824 5.857h4.78l-13.923 12.16L87.42 31.34zm19.375 0v-4.38c-1.366 1.677-2.9 2.926-4.597 3.772-1.7.847-3.562 1.266-5.576 1.266-3.59 0-6.653-1.31-9.185-3.925-2.545-2.61-3.805-5.802-3.805-9.543 0-3.67 1.272-6.81 3.836-9.418 2.56-2.61 5.645-3.912 9.242-3.912 2.084 0 3.96.443 5.65 1.336 1.685.89 3.167 2.22 4.435 4.005V5.857h3.21v25.485h-3.21zm-2.682-20.002c-1.935-1.983-4.316-2.977-7.13-2.977-1.813 0-3.486.452-5.028 1.348-1.537.89-2.756 2.156-3.665 3.778-.908 1.625-1.354 3.34-1.354 5.147 0 1.797.452 3.512 1.37 5.152.91 1.634 2.136 2.91 3.68 3.824 1.543.91 3.2 1.376 4.97 1.376 1.78 0 3.474-.46 5.068-1.36 1.602-.905 2.83-2.13 3.69-3.676.86-1.548 1.292-3.29 1.292-5.224 0-2.945-.966-5.41-2.893-7.386zm30.973 16.75c-2.558 2.608-5.63 3.91-9.226 3.91-2.07 0-3.94-.442-5.61-1.34-1.676-.882-3.16-2.22-4.442-4v4.682h-3.258V0h3.258v10.24c1.36-1.69 2.887-2.948 4.577-3.787 1.695-.832 3.548-1.25 5.56-1.25 3.584 0 6.646 1.302 9.18 3.92 2.537 2.62 3.804 5.797 3.804 9.524 0 3.687-1.28 6.836-3.844 9.444zm-.837-14.715c-.906-1.632-2.138-2.913-3.68-3.826-1.548-.916-3.183-1.374-4.93-1.374-1.788 0-3.482.458-5.08 1.373-1.607.912-2.833 2.14-3.7 3.686-.853 1.545-1.29 3.284-1.29 5.223 0 2.958.97 5.42 2.897 7.402 1.93 1.988 4.3 2.98 7.122 2.98 1.812 0 3.48-.45 5.015-1.354 1.532-.893 2.755-2.153 3.662-3.777.904-1.63 1.356-3.343 1.356-5.155 0-1.813-.458-3.538-1.374-5.18zm28.823 14.633C160.61 30.672 157.44 32 153.565 32c-3.883 0-7.06-1.328-9.53-3.992-2.46-2.66-3.69-5.773-3.69-9.34 0-3.526 1.163-6.587 3.496-9.184 2.567-2.857 5.81-4.282 9.725-4.282 3.907 0 7.14 1.422 9.71 4.265 2.33 2.592 3.497 5.657 3.497 9.2 0 3.568-1.236 6.68-3.7 9.34zm-2.548-16.574c-1.944-2.02-4.272-3.025-6.973-3.025-2.704 0-5.038 1.005-6.985 3.024-1.943 2.01-2.925 4.45-2.925 7.305 0 1.84.45 3.56 1.34 5.155.888 1.594 2.09 2.826 3.598 3.697 1.51.858 3.17 1.293 4.972 1.293 1.813 0 3.476-.435 4.98-1.293 1.514-.87 2.715-2.103 3.596-3.697.89-1.594 1.335-3.315 1.335-5.156 0-2.855-.976-5.295-2.938-7.306zm26.71 19.908h-3.968l-7.713-10.7-7.665 10.7H164l9.6-13.422-8.697-12.063h3.918l6.734 9.324 6.665-9.323h3.928l-8.623 12.04 9.71 13.445z" id="a"/></defs><g fill="none" fill-rule="evenodd"><g><mask id="b"><use xlink:href="#a"/></mask><path d="M.06-.04h187.2V32H.06V-.04z" fill="#3B3C39" mask="url(#b)"/></g></g></svg>

<?xml version="1.0" encoding="UTF-8" standalone="no"?>
<svg width="188px" height="32px" viewBox="0 0 188 32" version="1.1" xmlns="http://www.w3.org/2000/svg" xmlns:xlink="http://www.w3.org/1999/xlink" xmlns:sketch="http://www.bohemiancoding.com/sketch/ns">
    <!-- Generator: Sketch 3.2.2 (9983) - http://www.bohemiancoding.com/sketch -->
    <title>rockabox-187x32</title>
    <desc>Created with Sketch.</desc>
    <defs>
        <path d="M0.06,31.342 L3.334,31.342 L3.334,22.725 C3.334,18.306 3.537,15.372 3.941,13.918 C4.468,12.023 5.23,10.631 6.245,9.738 C7.249,8.84 8.305,8.388 9.391,8.388 C9.854,8.388 10.428,8.533 11.111,8.834 L12.809,6.067 C11.785,5.486 10.82,5.202 9.922,5.202 C8.724,5.202 7.579,5.568 6.478,6.289 C5.379,7.015 4.323,8.114 3.334,9.582 L3.334,5.857 L0.06,5.857 L0.06,31.342 L0.06,31.342 Z M33.649,28.008 C31.179,30.672 28.009,32 24.139,32 C20.254,32 17.074,30.672 14.611,28.008 C12.148,25.347 10.919,22.235 10.919,18.668 C10.919,15.142 12.081,12.081 14.412,9.484 C16.973,6.627 20.221,5.202 24.139,5.202 C28.052,5.202 31.274,6.624 33.844,9.467 C36.172,12.059 37.344,15.124 37.344,18.668 C37.344,22.235 36.118,25.347 33.649,28.008 L33.649,28.008 Z M31.104,11.434 C29.151,9.415 26.82,8.409 24.127,8.409 C21.413,8.409 19.09,9.415 17.137,11.434 C15.195,13.445 14.217,15.885 14.217,18.739 C14.217,20.58 14.661,22.301 15.553,23.895 C16.441,25.489 17.641,26.721 19.155,27.592 C20.668,28.45 22.322,28.885 24.127,28.885 C25.932,28.885 27.596,28.45 29.11,27.592 C30.619,26.721 31.819,25.489 32.704,23.895 C33.592,22.301 34.04,20.58 34.04,18.739 C34.04,15.885 33.062,13.445 31.104,11.434 L31.104,11.434 Z M52.996,8.292 C49.909,8.292 47.353,9.292 45.312,11.288 C43.269,13.285 42.255,15.713 42.255,18.564 C42.255,20.426 42.714,22.169 43.655,23.812 C44.592,25.45 45.875,26.721 47.52,27.625 C49.156,28.527 50.983,28.986 53.018,28.986 C56.743,28.986 59.782,27.488 62.138,24.502 L64.726,26.211 C63.513,28.047 61.888,29.472 59.847,30.488 C57.799,31.494 55.481,32 52.87,32 C48.868,32 45.54,30.727 42.899,28.159 C40.261,25.596 38.944,22.486 38.944,18.811 C38.944,16.342 39.558,14.052 40.796,11.93 C42.031,9.82 43.727,8.169 45.875,6.985 C48.041,5.796 50.454,5.202 53.125,5.202 C54.799,5.202 56.417,5.46 57.985,5.977 C59.54,6.486 60.866,7.163 61.951,7.99 C63.038,8.818 63.959,9.87 64.726,11.146 L62.138,12.768 C59.9,9.788 56.861,8.292 52.996,8.292 L52.996,8.292 Z M87.421,31.342 L82.832,31.342 L70.078,19.868 L70.078,31.342 L66.818,31.342 L66.818,0 L70.078,0 L70.078,16.142 L81.824,5.857 L86.605,5.857 L72.681,18.016 L87.421,31.342 L87.421,31.342 Z M106.795,31.342 L106.795,26.962 C105.429,28.639 103.895,29.888 102.198,30.734 C100.497,31.581 98.636,32 96.622,32 C93.031,32 89.969,30.691 87.437,28.075 C84.892,25.464 83.632,22.273 83.632,18.532 C83.632,14.861 84.904,11.722 87.468,9.114 C90.029,6.503 93.113,5.202 96.71,5.202 C98.794,5.202 100.671,5.645 102.361,6.538 C104.045,7.428 105.527,8.758 106.795,10.543 L106.795,5.857 L110.006,5.857 L110.006,31.342 L106.795,31.342 L106.795,31.342 Z M104.113,11.34 C102.178,9.357 99.797,8.363 96.984,8.363 C95.17,8.363 93.497,8.815 91.955,9.711 C90.418,10.601 89.199,11.866 88.29,13.488 C87.382,15.113 86.936,16.827 86.936,18.635 C86.936,20.432 87.388,22.147 88.306,23.787 C89.217,25.421 90.442,26.696 91.987,27.611 C93.529,28.521 95.186,28.986 96.957,28.986 C98.736,28.986 100.43,28.527 102.024,27.625 C103.626,26.721 104.853,25.495 105.714,23.95 C106.573,22.402 107.006,20.66 107.006,18.726 C107.006,15.781 106.04,13.316 104.113,11.34 L104.113,11.34 Z M135.086,28.091 C132.528,30.698 129.455,32 125.86,32 C123.79,32 121.921,31.558 120.25,30.661 C118.574,29.778 117.09,28.439 115.808,26.659 L115.808,31.342 L112.55,31.342 L112.55,0 L115.808,0 L115.808,10.24 C117.169,8.549 118.695,7.292 120.385,6.453 C122.08,5.621 123.933,5.202 125.946,5.202 C129.529,5.202 132.591,6.505 135.125,9.124 C137.662,11.743 138.929,14.92 138.929,18.647 C138.929,22.334 137.65,25.483 135.086,28.091 L135.086,28.091 Z M134.249,13.375 C133.344,11.743 132.112,10.462 130.57,9.549 C129.022,8.634 127.387,8.176 125.639,8.176 C123.852,8.176 122.158,8.634 120.56,9.549 C118.953,10.462 117.727,11.691 116.859,13.236 C116.007,14.781 115.57,16.52 115.57,18.459 C115.57,21.418 116.539,23.879 118.467,25.862 C120.398,27.85 122.766,28.842 125.589,28.842 C127.402,28.842 129.069,28.392 130.605,27.488 C132.137,26.595 133.36,25.335 134.267,23.711 C135.171,22.079 135.623,20.367 135.623,18.555 C135.623,16.742 135.165,15.017 134.249,13.375 L134.249,13.375 Z M163.073,28.008 C160.609,30.672 157.441,32 153.565,32 C149.682,32 146.504,30.672 144.036,28.008 C141.576,25.347 140.345,22.235 140.345,18.668 C140.345,15.142 141.508,12.081 143.841,9.484 C146.407,6.627 149.651,5.202 153.565,5.202 C157.472,5.202 160.706,6.624 163.274,9.467 C165.605,12.059 166.772,15.124 166.772,18.668 C166.772,22.235 165.536,25.347 163.073,28.008 L163.073,28.008 Z M160.525,11.434 C158.581,9.415 156.253,8.409 153.552,8.409 C150.848,8.409 148.514,9.415 146.567,11.434 C144.624,13.445 143.642,15.885 143.642,18.739 C143.642,20.58 144.093,22.301 144.983,23.895 C145.87,25.489 147.071,26.721 148.58,27.592 C150.089,28.45 151.749,28.885 153.552,28.885 C155.365,28.885 157.028,28.45 158.532,27.592 C160.046,26.721 161.247,25.489 162.128,23.895 C163.019,22.301 163.463,20.58 163.463,18.739 C163.463,15.885 162.487,13.445 160.525,11.434 L160.525,11.434 Z M187.234,31.342 L183.267,31.342 L175.554,20.641 L167.889,31.342 L164,31.342 L173.6,17.92 L164.903,5.857 L168.821,5.857 L175.554,15.181 L182.219,5.857 L186.148,5.857 L177.525,17.896 L187.234,31.342 L187.234,31.342 Z" id="path-1"></path>
    </defs>
    <g id="Page-1" stroke="none" stroke-width="1" fill="none" fill-rule="evenodd" sketch:type="MSPage">
        <g id="rockabox-187x32" sketch:type="MSLayerGroup">
            <mask id="mask-2" sketch:name="Clip 2" fill="white">
                <use xlink:href="#path-1"></use>
            </mask>
            <g id="Clip-2"></g>
            <path d="M0.06,-0.04 L187.26,-0.04 L187.26,32 L0.06,32 L0.06,-0.04 Z" id="Fill-1" fill="#3B3C39" sketch:type="MSShapeGroup" mask="url(#mask-2)"></path>
        </g>
    </g>
</svg>
